X: 41
T: The Concertina Reel
R:reel
M:C|
K:D
"D"A2FA BAFA|A2FA BAFA|"G"B2 cA B2 (3cBA|BAcA "D"BAFA|
"D"A2FA BAFA|A2FA BAFE|FABc "G"dcdB|"A"AFEF "D"D2 (3EFG:|
|:"D"AddB AddB|Addc dBFA|"G"B2 cA B2 (3cBA|BAcA "D"BAFA|
"D"AddB AddB|Addc dBFE|FABc "G"dcdB|"A"AFEF "D"D2 (3EFG:|


